accesslide/img/summary.svg

<?xml version="1.0" encoding="UTF-8" standalone="no"?>
<!-- Created with Inkscape (http://www.inkscape.org/) -->

<svg
   xmlns:dc="http://purl.org/dc/elements/1.1/"
   xmlns:cc="http://creativecommons.org/ns#"
   xmlns:rdf="http://www.w3.org/1999/02/22-rdf-syntax-ns#"
   xmlns:svg="http://www.w3.org/2000/svg"
   xmlns="http://www.w3.org/2000/svg"
   version="1.1"
   width="32"
   height="31.998905"
   viewBox="5 -10 32 43.198522"
   id="Layer_1"
   xml:space="preserve"><metadata
     id="metadata19"><rdf:RDF><cc:Work
         rdf:about=""><dc:format>image/svg+xml</dc:format><dc:type
           rdf:resource="http://purl.org/dc/dcmitype/StillImage" /><dc:title></dc:title></cc:Work></rdf:RDF></metadata><defs
     id="defs17" /><switch
     transform="matrix(0.47998359,0,0,0.47998359,-3.0980927,-12.328414)"
     id="switch3"
     style="fill:#032c36;fill-opacity:1"><foreignObject
       id="foreignObject5"
       height="1"
       width="1"
       y="0"
       x="0"
       requiredExtensions="http://ns.adobe.com/AdobeIllustrator/10.0/" /><g
       id="g7"
       style="fill:#032c36;fill-opacity:1"><path
         d="M 50,5 C 25.3,5 5.2,25.1 5,49.7 4.9,61.7 9.5,73.1 18,81.6 26.4,90.2 37.7,94.9 49.7,95 L 50,95 C 74.7,95 94.8,74.9 95,50.3 95.2,25.5 75.1,5.2 50,5 z m -9.2,25.8 28.8,0 c 1.6,0 2.9,1.3 2.9,2.9 0,1.6 -1.3,2.9 -2.9,2.9 l -28.8,0 c -1.6,0 -2.9,-1.2 -2.9,-2.9 0,-1.6 1.3,-2.9 2.9,-2.9 z m -12.6,38.4 -0.2,0 c -1.6,0 -2.9,-1.3 -2.9,-2.9 0,-1.6 1.3,-2.9 2.9,-2.9 l 0.2,0 c 1.6,0 2.9,1.2 2.9,2.9 0,1.6 -1.3,2.9 -2.9,2.9 z m 0,-16.3 -0.2,0 c -1.6,0 -2.9,-1.3 -2.9,-2.9 0,-1.6 1.3,-2.9 2.9,-2.9 l 0.2,0 c 1.6,0 2.9,1.3 2.9,2.9 0,1.6 -1.3,2.9 -2.9,2.9 z m 0,-16.3 -0.2,0 c -1.6,0 -2.9,-1.3 -2.9,-2.9 0,-1.6 1.3,-2.9 2.9,-2.9 l 0.2,0 c 1.6,0 2.9,1.3 2.9,2.9 0,1.6 -1.3,2.9 -2.9,2.9 z m 39.8,32.6 -27.2,0 c -1.6,0 -2.9,-1.3 -2.9,-2.9 0,-1.6 1.3,-2.9 2.9,-2.9 l 27.2,0 c 1.6,0 2.9,1.2 2.9,2.9 0,1.6 -1.3,2.9 -2.9,2.9 z M 69.833051,52.971504 40.8,52.9 c -1.599995,-0.0039 -2.9,-1.3 -2.9,-2.9 0,-1.6 1.300005,-2.903941 2.9,-2.9 l 29.033051,0.0715 c 1.599995,0.0039 2.9,1.3 2.9,2.9 0,1.6 -1.300005,2.903941 -2.9,2.9 z"
         id="path9"
         style="fill:#032c36;fill-opacity:1" /></g></switch></svg>

<svg xmlns="http://www.w3.org/2000/svg" width="32" height="31.999" viewBox="5 -10 32 43.199" xml:space="preserve"><switch transform="matrix(.47998 0 0 .47998 -3.098 -12.328)" style="fill:#032c36;fill-opacity:1"><g style="fill:#032c36;fill-opacity:1"><path d="M50 5C25.3 5 5.2 25.1 5 49.7c-.1 12 4.5 23.4 13 31.9 8.4 8.6 19.7 13.3 31.7 13.4h.3c24.7 0 44.8-20.1 45-44.7C95.2 25.5 75.1 5.2 50 5zm-9.2 25.8h28.8c1.6 0 2.9 1.3 2.9 2.9 0 1.6-1.3 2.9-2.9 2.9H40.8c-1.6 0-2.9-1.2-2.9-2.9 0-1.6 1.3-2.9 2.9-2.9zM28.2 69.2H28c-1.6 0-2.9-1.3-2.9-2.9 0-1.6 1.3-2.9 2.9-2.9h.2c1.6 0 2.9 1.2 2.9 2.9 0 1.6-1.3 2.9-2.9 2.9zm0-16.3H28c-1.6 0-2.9-1.3-2.9-2.9 0-1.6 1.3-2.9 2.9-2.9h.2c1.6 0 2.9 1.3 2.9 2.9 0 1.6-1.3 2.9-2.9 2.9zm0-16.3H28c-1.6 0-2.9-1.3-2.9-2.9 0-1.6 1.3-2.9 2.9-2.9h.2c1.6 0 2.9 1.3 2.9 2.9 0 1.6-1.3 2.9-2.9 2.9zM68 69.2H40.8c-1.6 0-2.9-1.3-2.9-2.9 0-1.6 1.3-2.9 2.9-2.9H68c1.6 0 2.9 1.2 2.9 2.9 0 1.6-1.3 2.9-2.9 2.9zm1.833-16.228L40.8 52.9a2.9 2.9 0 1 1 0-5.8l29.033.071a2.9 2.9 0 1 1 0 5.8z" style="fill:#032c36;fill-opacity:1"/></g></switch></svg>
